icon-svg/apple-watch.svg

<svg xmlns="http://www.w3.org/2000/svg" viewBox="0 0 24 24"><path fill="#44739e" d="M17.358 10.438a.11.11 0 0 0 .111-.111V8.673a.11.11 0 0 0-.111-.111h-.2v-.624A2.19 2.19 0 0 0 15.73 5.89a1.77 1.77 0 0 1-.449-1.39V3.343c0-.9-.5-.99-1.516-1.166A11.3 11.3 0 0 0 11.844 2a11 11 0 0 0-1.921.177c-1.016.2-1.517.305-1.517 1.166V4.5a1.74 1.74 0 0 1-.438 1.386 2.195 2.195 0 0 0-1.437 2.052v8.124a2.195 2.195 0 0 0 1.437 2.052 1.74 1.74 0 0 1 .438 1.386v1.157c0 .861.5.968 1.517 1.166a11 11 0 0 0 1.921.177 11.3 11.3 0 0 0 1.921-.177c1.015-.176 1.516-.261 1.516-1.166V19.5a1.77 1.77 0 0 1 .449-1.39 2.19 2.19 0 0 0 1.426-2.048v-1.25h.156a.156.156 0 0 0 .157-.156v-2.187a.157.157 0 0 0-.157-.157h-.156v-1.874Zm-.514 5.624a1.88 1.88 0 0 1-1.875 1.876h-6.25a1.88 1.88 0 0 1-1.875-1.876V7.938a1.88 1.88 0 0 1 1.875-1.876h6.25a1.88 1.88 0 0 1 1.875 1.876ZM8.719 6.375h6.249a1.56 1.56 0 0 1 1.563 1.563v8.124a1.56 1.56 0 0 1-1.563 1.563H8.719a1.56 1.56 0 0 1-1.563-1.563V7.938a1.56 1.56 0 0 1 1.563-1.563"/></svg>

<svg height='24px' width='24px'  fill="#44739e" xmlns="http://www.w3.org/2000/svg" xmlns:xlink="http://www.w3.org/1999/xlink" version="1.1" x="0px" y="0px" viewBox="0 0 24 24" enable-background="new 0 0 100 100" xml:space="preserve"><g><path d="m 17.358,10.438 a 0.111,0.111 0 0 0 0.111,-0.111 V 8.673 A 0.111,0.111 0 0 0 17.358,8.562 h -0.2 V 7.938 A 2.194,2.194 0 0 0 15.73,5.89 1.77,1.77 0 0 1 15.281,4.5 V 3.343 c 0,-0.9 -0.5,-0.99 -1.516,-1.166 A 11.288,11.288 0 0 0 11.844,2 10.947,10.947 0 0 0 9.923,2.177 C 8.907,2.377 8.406,2.482 8.406,3.343 V 4.5 A 1.74,1.74 0 0 1 7.968,5.886 2.195,2.195 0 0 0 6.531,7.938 v 8.124 a 2.195,2.195 0 0 0 1.437,2.052 1.74,1.74 0 0 1 0.438,1.386 v 1.157 c 0,0.861 0.5,0.968 1.517,1.166 A 10.947,10.947 0 0 0 11.844,22 11.288,11.288 0 0 0 13.765,21.823 c 1.015,-0.176 1.516,-0.261 1.516,-1.166 V 19.5 a 1.77,1.77 0 0 1 0.449,-1.39 2.194,2.194 0 0 0 1.426,-2.048 v -1.25 h 0.156 a 0.156,0.156 0 0 0 0.157,-0.156 v -2.187 a 0.157,0.157 0 0 0 -0.157,-0.157 h -0.156 v -1.874 z m -0.514,5.624 a 1.878,1.878 0 0 1 -1.875,1.876 H 8.719 A 1.878,1.878 0 0 1 6.844,16.062 V 7.938 A 1.878,1.878 0 0 1 8.719,6.062 h 6.25 a 1.878,1.878 0 0 1 1.875,1.876 z M 8.7190001,6.375 H 14.968 c 0.865902,0 1.563,0.697098 1.563,1.563 v 8.124 c 0,0.865902 -0.697098,1.563 -1.563,1.563 H 8.7190001 c -0.865902,0 -1.563,-0.697098 -1.563,-1.563 V 7.938 c 0,-0.865902 0.697098,-1.563 1.563,-1.563 z"></path></g></svg>
